icon/pk/bad-two.svg

<svg viewBox="0 0 48 48" fill="none" xmlns="http://www.w3.org/2000/svg" height="1em" width="1em">
  <path d="M4.18051 26.8339C4.08334 27.9999 5.00352 29 6.1736 29H10C11.1046 29 12 28.1046 12 27V7C12 5.89543 11.1046 5 10 5H7.84027C6.80009 5 5.93356 5.79733 5.84717 6.83391L4.18051 26.8339Z" fill="#2F88FF" stroke="black" stroke-width="4" stroke-linecap="round" stroke-linejoin="round"/>
  <path d="M18 26.6255C18 27.4612 18.5194 28.2092 19.2753 28.5655C20.9238 29.3426 23.7329 30.9062 25 33.0195C26.6331 35.7431 26.9411 40.664 26.9912 41.7912C26.9982 41.949 26.9937 42.107 27.0154 42.2634C27.2861 44.2155 31.0543 41.9351 32.5 39.5239C33.2846 38.2153 33.3852 36.496 33.3027 35.1537C33.2144 33.7175 32.7933 32.3301 32.3802 30.9517L31.5 28.0155H42.3569C43.6832 28.0155 44.6421 26.7482 44.2816 25.4719L38.9113 6.45642C38.668 5.5949 37.8818 5 36.9866 5H20C18.8954 5 18 5.89543 18 7V26.6255Z" fill="#2F88FF" stroke="black" stroke-width="4" stroke-linecap="round" stroke-linejoin="round"/>
</svg>

<svg width="48" height="48" fill="none" xmlns="http://www.w3.org/2000/svg"><path d="M4.18 26.834A2 2 0 0 0 6.175 29H10a2 2 0 0 0 2-2V7a2 2 0 0 0-2-2H7.84a2 2 0 0 0-1.993 1.834l-1.666 20ZM18 26.625c0 .836.52 1.584 1.275 1.94 1.649.778 4.458 2.341 5.725 4.454 1.633 2.724 1.941 7.645 1.991 8.772.007.158.003.316.024.472.271 1.953 4.04-.328 5.485-2.74.785-1.308.885-3.027.803-4.37-.089-1.435-.51-2.823-.923-4.201l-.88-2.937h10.857a2 2 0 0 0 1.925-2.543l-5.37-19.016A2 2 0 0 0 36.986 5H20a2 2 0 0 0-2 2v19.625Z" fill="#2F88FF" stroke="#000" stroke-width="4" stroke-linecap="round" stroke-linejoin="round"/></svg>
